X: 19
T:John Byrnes' Favourite Cake
R:Reel
M:4/4
S:Noel Hill, Clare (concertina)
D:Tape of concert in Dublin '91
H:Versions of Jenny's Chickens (?)
Z:Bernie Stocks
K:D %i.e. 2 sharps
f2Bf fece | fBBf eAce | fB~B2 fece | fBaf eAce :: fBbB fBBe | fBbf eAce |
fBbB fBBe | fBaf eAce :: f2fe fdde | fedf eAce | f2fe fdde | fdaf eAce :|
